X: 42908
T: Will You Come Home With Me?
R: jig
M: 6/8
K: Gmajor
|:dge fdc|BdB cAF|G3 A/B/cA|G3 ABc|
dge fdc|BdB cAF|G3 A/B/cA|G3 GBc:|
|:d2B c2A|BdB cAF|G3 A/B/cA|G3 ABc|
d2B c2A|BdB cAF|G3 A/B/cA|G3 GBc:|

